X:26
T:Sherman's March
M:2/4
Q:1/4=100
L:1/8
K:G
%%MIDI channel 1
%%MIDI program 72
%%MIDI transpose 8
%%MIDI grace 1/8
%%MIDI ratio 3 1
D|DG GB|B Ld2 d|dA A>B|A3 D|DF FA|A Lc2 e|ed d>c|B3G|
GB Bd|d Lg2 g|ge e>d|e3e|ed dB|dcc D|DB B>A|1 G2 z:|2 G2 zD|
|:B2 B>B|B3 B|cBAG|A3 D|A2 A>A|A3 A|BAGF|G3 D|
!crescendo(!DG GB!crescendo)!|d Lg2 g|ge e>d|e3 e|e>d dB|dcc D|DB B>A|1 G2 z D:|2 G2 z|]
